X:1
T:Title
%%score { ( 1 4 ) | ( 2 3 ) }
L:1/8
Q:1/4=100
M:6/8
K:F
V:1 treble nm="Grand Piano"
V:4 treble 
V:2 bass 
V:3 bass 
V:1
 [CA]2 A [CA]GF | [CA]2 A [CA]GF | [Fc]3 [CF]3 | .[CE]6 | [GB]2 B [GB]AG | [GB]2 B [GB]AG | %6
w: G.~B.~Lanchard * * * *||||||
 [Ac]3 B3 | .[FA]6 | [Ac]2 c [Ac]BA | [Ac]2 c [Ac]BA | z3 d3 | c6 | F2 F DE[B,DF] | z3 .D3 | %14
w: ||||||||
 A3 [B,EG]3 |[M:7/4] [A,F]6 z2 z2 z4 |[M:3/4] [B,DF]6 | [A,CF]6 |] %18
w: ||||
V:2
 z2 C z B,A, | z2 C z B,A, | [F,,F,]3 [F,A,]3 | [G,B,]3 C,3 | z2[K:treble] G z FE | %5
 z2[K:treble] G z FE | [C,,C,]3 [CG]3 | [F,,F,]3 C3 | z2[K:treble] A z GF | z2[K:treble] A z GF | %10
 [F,,F,]3[K:treble] .[B,B]3 | [FA]6 | [F,A,C]2 [F,A,C] [B,,F,B,]2 B,, | A,,2 A,, G,,2 [G,,D,] | %14
 [C,F,C]3 C,3 |[M:7/4] F,6 z2 z2 z4 |[M:3/4] B,,6 | F,6 |] %18
V:3
 [F,,F,]3 F,3 | [F,,F,]3 F,3 | x6 | x6 | [C,,C,]3[K:treble] C3 | [C,,C,]3[K:treble] C3 | x6 | x6 | %8
 [F,,F,]3[K:treble] C3 | [F,,F,]3[K:treble] C3 | x3[K:treble] x3 | x6 | x6 | x6 | x6 |[M:7/4] x14 | %16
[M:3/4] x6 | x6 |] %18
V:4
 x6 | x6 | x6 | x6 | x6 | x6 | x6 | x6 | x6 | x6 | [Bd]3 z2 D | x6 | x6 | %13
 [F,CF]2 [F,CF] [F,=B,]-[F,B,-E][B,F] | x6 |[M:7/4] x14 |[M:3/4] x6 | x6 |] %18

